X:1
T:Drunken Peasant
M:C|
L:1/8
R:Country Dance Tune
S:Geoghegan - Compleat Tutor for the Pastoral or New Bagpipe (c. 1745-46)
Z:AK/Fiddler's Companion
K:D
D4A4 | FGAF D4 | A4d4 | cdec A4 |
a2A2a2gf | g2A2g2fe | f2ed c2d2 | e8 ||
A2d4A2 | BcdB G4 | B2e4B4 | cdec A4 |
A2 Bc defg | a2c2d2g2 | f2 ed c3d | d8 ||
K:D Minor
D2E2F2G2 | A G3 B A3 | d2 ef e2d2 | ^c2de A4 |
D2E2F2G2 | A G3 BA3 | d2A2G2 FG | B8 ||
F2G2A2B2 | cA3 GF3 | c2A2G2F2 | GFED C4 |
G2A2B2c2 | dB3AG3 | d2B2A2G2 | AGFE D4 |
A2B4A2 | d2 cB A2G2 | F2D2 A2A2 | D8 ||

